public/avatar/body/59.svg

<svg xmlns:xlink="http://www.w3.org/1999/xlink" height="82" width="84.85" xmlns="http://www.w3.org/2000/svg"><g transform="translate(37.4 42.25)"><use height=".25" transform="translate(-3.5 17)" width="14.5" xlink:href="#a"/><use height="38" transform="translate(-11.95 -17.45)" width="32.05" xlink:href="#b"/><use height="38.95" transform="translate(-12.45 -17.95)" width="33.05" xlink:href="#c"/><use height="14.85" transform="translate(-12.2 6.45)" width="32.75" xlink:href="#d"/></g><defs><path d="m11 17.25-.05-.05H11v.05M-3.5 17l.05.05v.05l-.05-.1" fill="#8e9ad7" fill-rule="evenodd" transform="translate(3.5 -17)" id="a"/><path d="M27.35 7.4q2.15 4.15 3.55 8.75 1.45 4.7 1.15 9.5-.35 4.95-4.2 8.1-3.8 3.2-8.75 4.05l-2.6.2q-3.6 0-7.05-1.15-4.65-1.6-7.1-5.5Q-.2 27.4.05 23q.2-4.4 2-9.3Q3.85 8.75 7 5.05 10.1 1.3 14.7.1l1.8-.1q1.9.05 3.7.8 4.75 2.05 7.15 6.6" fill="#f2c597" fill-rule="evenodd" transform="translate(-.05)" id="e"/><path d="M27.35 7.4Q24.95 2.85 20.2.8 17.55-.3 14.7.1 10.1 1.3 7 5.05q-3.15 3.7-4.95 8.65-1.8 4.9-2 9.3-.25 4.4 2.3 8.35 2.45 3.9 7.1 5.5 4.65 1.55 9.65.95 4.95-.85 8.75-4.05 3.85-3.15 4.2-8.1.3-4.8-1.15-9.5-1.4-4.6-3.55-8.75Z" fill="none" stroke="#776237" stroke-linecap="round" stroke-linejoin="round" transform="translate(.45 .5)" id="f"/><use height="38" width="32.05" xlink:href="#e" id="b"/><use height="38.95" width="33.05" xlink:href="#f" id="c"/><g id="d"><path d="M9.65 17.95q-6 6.35-10.8 0l-.05-.05-.05.05h-.6q-.5-.3-1.05-.5l-.55-.35v-.05L-3.5 17l-.15-.05q-1.15-.45-2.45-.6h-.05l-1.1-.25-.25-.05q-.5-.15-.85-.45l-.2-.05-.25-.45-.9-1.2-.05-.1.15-.1h.2l.15.2.5-.1 1.9.45.15.05 1.55.15 2.6.2 3.45.45.2.05q3.25.4 7.05 0l.25-.05 6.25-.7.55-.15 2.75-.1-1.15 1.45-1.6.3q-2.25.3-4.2 1.3h-.05l.05.05-.45.15-.05.05-.1.05-.1.05-.25.1-.4.3m-8.6-5.15.2-3.8h5.3l.7 3.8q-2.7-1.45-6.2 0" fill="#ff1159" fill-rule="evenodd" transform="translate(12.2 -6.45)"/><path d="M6.55 9h.65" fill="none" stroke="#fd6f5b" stroke-linecap="round" stroke-linejoin="round" transform="translate(12.2 -6.45)"/><path d="M1.05 12.8q3.5-1.45 6.2 0" fill="none" stroke="#c8004b" stroke-linecap="round" stroke-linejoin="round" transform="translate(12.2 -6.45)"/><path d="M6.55 9h-5.3" fill="none" stroke="#fc7670" stroke-linecap="round" stroke-linejoin="round" transform="translate(12.2 -6.45)"/><path d="m15.15 8.75 4.9-1.8-.5 3.6-5.15 1.75.75-3.55" fill="#ff1159" fill-rule="evenodd" transform="translate(12.2 -6.45)"/><path d="m20.05 6.95-.5 3.6-5.15 1.75.75-3.55" fill="none" stroke="#c8004b" stroke-linecap="round" stroke-linejoin="round" transform="translate(12.2 -6.45)"/><path d="m15.15 8.75 4.9-1.8Z" fill="none" stroke="#fc7670" stroke-linecap="round" stroke-linejoin="round" transform="translate(12.2 -6.45)"/><path d="m6.9 9.05.4-.25q1.5-.85 3.65-.85t3.65.85l.35.2.55.45q.6.65.6 1.4v.1l-2.15.8h-.1l-3.9.25-.95-.25-3.15-1.25Q6 9.7 6.9 9.05m5.45-.15-.2.05q-.75.25-.85 1-.05.75.65 1.05 1.45.6 2.3-.55v-.3q-.6-1.05-1.9-1.25" fill="#ff1159" fill-rule="evenodd" transform="translate(12.2 -6.45)"/><path d="M5.85 10.5 9 11.75l.95.25 3.9-.25h.1l2.15-.8-.1.55-.15.25-.25.35-1 .8-.25.15q-1.45.7-3.4.7-2.15 0-3.65-.85l-.75-.55-.25-.25h-.05l-.35-.6-.1-.4v-.3l.05-.3" fill="#e60045" fill-rule="evenodd" transform="translate(12.2 -6.45)"/><path d="M12.35 8.9q1.3.2 1.9 1.25v.3q-.85 1.15-2.3.55-.7-.3-.65-1.05.1-.75.85-1l.2-.05" fill="#fe74b3" fill-rule="evenodd" transform="translate(12.2 -6.45)"/><path d="m6.55 12.35.75.55q1.5.85 3.65.85 1.95 0 3.4-.7l.25-.15 1-.8" fill="none" stroke="#c8004b" stroke-linecap="round" stroke-linejoin="round" transform="translate(12.2 -6.45)"/><path d="m14.95 9-.35-.2q-1.5-.85-3.65-.85T7.3 8.8l-.4.25" fill="none" stroke="#fc7670" stroke-linecap="round" stroke-linejoin="round" transform="translate(12.2 -6.45)"/><path d="M6.55 12.35q-.75-.65-.75-1.5 0-1.05 1.1-1.8" fill="none" stroke="#fe74b3" stroke-linecap="round" stroke-linejoin="round" transform="translate(12.2 -6.45)"/><path d="m14.95 9 .55.45q.6.65.6 1.4v.1l-.1.55-.15.25-.25.35" fill="none" stroke="#e60056" stroke-linecap="round" stroke-linejoin="round" transform="translate(12.2 -6.45)"/><path d="m-11.7 7.15 4.95 1.8.7 3.55-5.15-1.75-.5-3.6" fill="#ff1159" fill-rule="evenodd" transform="translate(12.2 -6.45)"/><path d="m-11.7 7.15.5 3.6 5.15 1.75-.7-3.55" fill="none" stroke="#c8004b" stroke-linecap="round" stroke-linejoin="round" transform="translate(12.2 -6.45)"/><path d="m-6.75 8.95-4.95-1.8Z" fill="none" stroke="#fc7670" stroke-linecap="round" stroke-linejoin="round" transform="translate(12.2 -6.45)"/><path d="m-1.4 13.7-.3.05H-2l.6-.05" fill="#de0170" fill-rule="evenodd" transform="translate(12.2 -6.45)"/><path d="m.8 10.7.1-.25Q.8 8.95-1 8.95l-.35.05q-1.4.35-1.05 1.65.1.5.6.65 1.45.45 2.6-.6m.5-1.8q1.15.7 1.3 1.7-.6.25-1.15.65L-.2 12l-.3.1h-1.4l-3.25-.3-2.55-.85v-.1q0-.8.7-1.45l.8-.6q1.5-.85 3.65-.85t3.65.85l.2.1" fill="#ff1159" fill-rule="evenodd" transform="translate(12.2 -6.45)"/><path d="M2.6 10.6v.25l-.25 1-.5.55-.75.5-.85.4-.45.15-1.2.25-.6.05h-.55q-2.15 0-3.65-.85l-.05-.05h-.05l-.2-.15-.15-.1h-.05l-.3-.25q-.65-.65-.7-1.4l2.55.85 3.25.3h1.4l.3-.1 1.65-.75q.55-.4 1.15-.65" fill="#e60045" fill-rule="evenodd" transform="translate(12.2 -6.45)"/><path d="M.8 10.7q-1.15 1.05-2.6.6-.5-.15-.6-.65-.35-1.3 1.05-1.65l.35-.05q1.8 0 1.9 1.5l-.1.25" fill="#fe74b3" fill-rule="evenodd" transform="translate(12.2 -6.45)"/><path d="m1.85 12.4-.75.5-.85.4-.45.15-1.2.25-.6.05h-.55q-2.15 0-3.65-.85l-.05-.05h-.05l-.2-.15" fill="none" stroke="#c8004b" stroke-linecap="round" stroke-linejoin="round" transform="translate(12.2 -6.45)"/><path d="m-7 9.4.8-.6q1.5-.85 3.65-.85t3.65.85l.2.1" fill="none" stroke="#fc7670" stroke-linecap="round" stroke-linejoin="round" transform="translate(12.2 -6.45)"/><path d="M1.3 8.9q1.3.8 1.3 1.95 0 .85-.75 1.55" fill="none" stroke="#e60056" stroke-linecap="round" stroke-linejoin="round" transform="translate(12.2 -6.45)"/><path d="m-6.7 12.6-.3-.25q-.65-.65-.7-1.4v-.1q0-.8.7-1.45" fill="none" stroke="#fe74b3" stroke-linecap="round" stroke-linejoin="round" transform="translate(12.2 -6.45)"/><path d="m-9.55 13.55.55.15q13.35 3.7 26.8.05" fill="none" stroke="#fc7670" stroke-linecap="round" stroke-linejoin="round" transform="translate(12.2 -6.45)"/><path d="M-.2 19.4q3.85 2.65 8.1.25m0 0 1.95-1.75q2.95-1.6 6.15-2.15M-7.7 16q4.15 1 5.95 1.95L-.2 19.4" fill="none" stroke="#c8004b" stroke-linecap="round" stroke-linejoin="round" transform="translate(12.2 -6.45)"/></g></defs></svg>

<?xml version="1.0" encoding="UTF-8" standalone="no"?>
<svg xmlns:xlink="http://www.w3.org/1999/xlink" height="82.0px" width="84.85px" xmlns="http://www.w3.org/2000/svg">
  <g transform="matrix(1.0, 0.0, 0.0, 1.0, 37.4, 42.25)">
    <use height="0.25" transform="matrix(1.0, 0.0, 0.0, 1.0, -3.5, 17.0)" width="14.5" xlink:href="#shape0"/>
    <use height="38.0" transform="matrix(1.0, 0.0, 0.0, 1.0, -11.95, -17.45)" width="32.05" xlink:href="#sprite0"/>
    <use height="38.95" transform="matrix(1.0, 0.0, 0.0, 1.0, -12.45, -17.95)" width="33.05" xlink:href="#sprite1"/>
    <use height="14.85" transform="matrix(1.0, 0.0, 0.0, 1.0, -12.2, 6.45)" width="32.75" xlink:href="#shape3"/>
  </g>
  <defs>
    <g id="shape0" transform="matrix(1.0, 0.0, 0.0, 1.0, 3.5, -17.0)">
      <path d="M11.0 17.25 L10.95 17.2 11.0 17.2 11.0 17.25 M-3.5 17.0 L-3.45 17.05 -3.45 17.1 -3.5 17.0" fill="#8e9ad7" fill-rule="evenodd" stroke="none"/>
    </g>
    <g id="sprite0" transform="matrix(1.0, 0.0, 0.0, 1.0, -0.05, 0.0)">
      <use height="38.0" transform="matrix(1.0, 0.0, 0.0, 1.0, 0.05, 0.0)" width="32.05" xlink:href="#shape1"/>
    </g>
    <g id="shape1" transform="matrix(1.0, 0.0, 0.0, 1.0, -0.05, 0.0)">
      <path d="M27.35 7.4 Q29.5 11.55 30.9 16.15 32.35 20.85 32.05 25.65 31.7 30.6 27.85 33.75 24.05 36.95 19.1 37.8 L16.5 38.0 Q12.9 38.0 9.45 36.85 4.8 35.25 2.35 31.35 -0.2 27.4 0.05 23.0 0.25 18.6 2.05 13.7 3.85 8.75 7.0 5.05 10.1 1.3 14.7 0.1 L16.5 0.0 Q18.4 0.05 20.2 0.8 24.95 2.85 27.35 7.4" fill="#f2c597" fill-rule="evenodd" stroke="none"/>
    </g>
    <g id="sprite1" transform="matrix(1.0, 0.0, 0.0, 1.0, 0.45, 0.5)">
      <use height="38.95" transform="matrix(1.0, 0.0, 0.0, 1.0, -0.45, -0.5)" width="33.05" xlink:href="#shape2"/>
    </g>
    <g id="shape2" transform="matrix(1.0, 0.0, 0.0, 1.0, 0.45, 0.5)">
      <path d="M27.35 7.4 Q24.95 2.85 20.2 0.8 17.55 -0.3 14.7 0.1 10.1 1.3 7.0 5.05 3.85 8.75 2.05 13.7 0.25 18.6 0.05 23.0 -0.2 27.4 2.35 31.35 4.8 35.25 9.45 36.85 14.1 38.4 19.1 37.8 24.05 36.95 27.85 33.75 31.7 30.6 32.05 25.65 32.35 20.85 30.9 16.15 29.5 11.55 27.35 7.4 Z" fill="none" stroke="#776237" stroke-linecap="round" stroke-linejoin="round" stroke-width="1.0"/>
    </g>
    <g id="shape3" transform="matrix(1.0, 0.0, 0.0, 1.0, 12.2, -6.45)">
      <path d="M9.65 17.95 Q3.65 24.3 -1.15 17.95 L-1.2 17.9 -1.25 17.95 -1.85 17.95 Q-2.35 17.65 -2.9 17.45 L-3.45 17.1 -3.45 17.05 -3.5 17.0 -3.65 16.95 Q-4.8 16.5 -6.1 16.35 L-6.15 16.35 -7.25 16.1 -7.5 16.05 Q-8.0 15.9 -8.35 15.6 L-8.55 15.55 -8.8 15.1 -9.7 13.9 -9.75 13.8 -9.6 13.7 -9.55 13.7 -9.5 13.7 -9.4 13.7 -9.25 13.9 -8.75 13.8 -6.85 14.25 -6.7 14.3 -5.15 14.45 -2.55 14.65 0.9 15.1 1.1 15.15 Q4.35 15.55 8.15 15.15 L8.4 15.1 14.65 14.4 15.2 14.25 17.95 14.15 16.8 15.6 15.2 15.9 Q12.95 16.2 11.0 17.2 L10.95 17.2 11.0 17.25 10.55 17.4 10.5 17.45 10.4 17.5 10.3 17.55 10.05 17.65 9.65 17.95" fill="#ff1159" fill-rule="evenodd" stroke="none"/>
      <path d="M1.05 12.8 L1.25 9.0 6.55 9.0 7.25 12.8 Q4.55 11.35 1.05 12.8" fill="#ff1159" fill-rule="evenodd" stroke="none"/>
      <path d="M6.55 9.0 L7.2 9.0" fill="none" stroke="#fd6f5b" stroke-linecap="round" stroke-linejoin="round" stroke-width="1.0"/>
      <path d="M1.05 12.8 Q4.55 11.35 7.25 12.8" fill="none" stroke="#c8004b" stroke-linecap="round" stroke-linejoin="round" stroke-width="1.0"/>
      <path d="M6.55 9.0 L1.25 9.0" fill="none" stroke="#fc7670" stroke-linecap="round" stroke-linejoin="round" stroke-width="1.0"/>
      <path d="M15.15 8.75 L20.05 6.95 19.55 10.55 14.4 12.3 15.15 8.75" fill="#ff1159" fill-rule="evenodd" stroke="none"/>
      <path d="M20.05 6.95 L19.55 10.55 14.4 12.3 15.15 8.75" fill="none" stroke="#c8004b" stroke-linecap="round" stroke-linejoin="round" stroke-width="1.0"/>
      <path d="M15.15 8.75 L20.05 6.95 Z" fill="none" stroke="#fc7670" stroke-linecap="round" stroke-linejoin="round" stroke-width="1.0"/>
      <path d="M6.9 9.05 L7.3 8.8 Q8.8 7.95 10.95 7.95 13.1 7.95 14.6 8.8 L14.95 9.0 15.5 9.45 Q16.1 10.1 16.1 10.85 L16.1 10.95 13.95 11.75 13.85 11.75 9.95 12.0 9.0 11.75 5.85 10.5 Q6.0 9.7 6.9 9.05 M12.35 8.9 L12.15 8.95 Q11.4 9.2 11.3 9.95 11.25 10.7 11.95 11.0 13.4 11.6 14.25 10.45 L14.25 10.15 Q13.65 9.1 12.35 8.9" fill="#ff1159" fill-rule="evenodd" stroke="none"/>
      <path d="M5.85 10.5 L9.0 11.75 9.95 12.0 13.85 11.75 13.95 11.75 16.1 10.95 16.0 11.5 15.85 11.75 15.6 12.1 14.6 12.9 14.35 13.05 Q12.9 13.75 10.95 13.75 8.8 13.75 7.3 12.9 L6.55 12.35 6.3 12.1 6.25 12.1 5.9 11.5 5.8 11.1 5.8 11.0 5.8 10.85 5.8 10.8 5.85 10.5" fill="#e60045" fill-rule="evenodd" stroke="none"/>
      <path d="M12.35 8.9 Q13.65 9.1 14.25 10.15 L14.25 10.45 Q13.4 11.6 11.95 11.0 11.25 10.7 11.3 9.95 11.4 9.2 12.15 8.95 L12.35 8.9" fill="#fe74b3" fill-rule="evenodd" stroke="none"/>
      <path d="M6.55 12.35 L7.3 12.9 Q8.8 13.75 10.95 13.75 12.9 13.75 14.35 13.05 L14.6 12.9 15.6 12.1" fill="none" stroke="#c8004b" stroke-linecap="round" stroke-linejoin="round" stroke-width="1.0"/>
      <path d="M14.95 9.0 L14.6 8.8 Q13.1 7.95 10.95 7.95 8.8 7.95 7.3 8.8 L6.9 9.05" fill="none" stroke="#fc7670" stroke-linecap="round" stroke-linejoin="round" stroke-width="1.0"/>
      <path d="M6.55 12.35 Q5.8 11.7 5.8 10.85 5.8 9.8 6.9 9.05" fill="none" stroke="#fe74b3" stroke-linecap="round" stroke-linejoin="round" stroke-width="1.0"/>
      <path d="M14.95 9.0 L15.5 9.45 Q16.1 10.1 16.1 10.85 L16.1 10.95 16.0 11.5 15.85 11.75 15.6 12.1" fill="none" stroke="#e60056" stroke-linecap="round" stroke-linejoin="round" stroke-width="1.0"/>
      <path d="M-11.7 7.15 L-6.75 8.95 -6.05 12.5 -11.2 10.75 -11.7 7.15" fill="#ff1159" fill-rule="evenodd" stroke="none"/>
      <path d="M-11.7 7.15 L-11.2 10.75 -6.05 12.5 -6.75 8.95" fill="none" stroke="#c8004b" stroke-linecap="round" stroke-linejoin="round" stroke-width="1.0"/>
      <path d="M-6.75 8.95 L-11.7 7.15 Z" fill="none" stroke="#fc7670" stroke-linecap="round" stroke-linejoin="round" stroke-width="1.0"/>
      <path d="M-1.4 13.7 L-1.7 13.75 -2.0 13.75 -1.4 13.7" fill="#de0170" fill-rule="evenodd" stroke="none"/>
      <path d="M0.8 10.7 L0.9 10.45 Q0.8 8.95 -1.0 8.95 L-1.35 9.0 Q-2.75 9.35 -2.4 10.65 -2.3 11.15 -1.8 11.3 -0.35 11.75 0.8 10.7 M1.3 8.9 Q2.45 9.6 2.6 10.6 2.0 10.85 1.45 11.25 L-0.2 12.0 -0.5 12.1 -1.9 12.1 -5.15 11.8 -7.7 10.95 -7.7 10.85 Q-7.7 10.05 -7.0 9.4 L-6.2 8.8 Q-4.7 7.95 -2.55 7.95 -0.4 7.95 1.1 8.8 L1.3 8.9" fill="#ff1159" fill-rule="evenodd" stroke="none"/>
      <path d="M2.6 10.6 L2.6 10.85 2.35 11.85 1.85 12.4 1.1 12.9 0.25 13.3 -0.2 13.45 -1.4 13.7 -2.0 13.75 -2.55 13.75 Q-4.7 13.75 -6.2 12.9 L-6.25 12.85 -6.3 12.85 -6.5 12.7 -6.65 12.6 -6.7 12.6 -7.0 12.35 Q-7.65 11.7 -7.7 10.95 L-5.15 11.8 -1.9 12.1 -0.5 12.1 -0.2 12.0 1.45 11.25 Q2.0 10.85 2.6 10.6" fill="#e60045" fill-rule="evenodd" stroke="none"/>
      <path d="M0.8 10.7 Q-0.35 11.75 -1.8 11.3 -2.3 11.15 -2.4 10.65 -2.75 9.35 -1.35 9.0 L-1.0 8.95 Q0.8 8.95 0.9 10.45 L0.8 10.7" fill="#fe74b3" fill-rule="evenodd" stroke="none"/>
      <path d="M1.85 12.4 L1.1 12.9 0.25 13.3 -0.2 13.45 -1.4 13.7 -2.0 13.75 -2.55 13.75 Q-4.7 13.75 -6.2 12.9 L-6.25 12.85 -6.3 12.85 -6.5 12.7" fill="none" stroke="#c8004b" stroke-linecap="round" stroke-linejoin="round" stroke-width="1.0"/>
      <path d="M-7.0 9.4 L-6.2 8.8 Q-4.7 7.95 -2.55 7.95 -0.4 7.95 1.1 8.8 L1.3 8.9" fill="none" stroke="#fc7670" stroke-linecap="round" stroke-linejoin="round" stroke-width="1.0"/>
      <path d="M1.3 8.9 Q2.6 9.7 2.6 10.85 2.6 11.7 1.85 12.4" fill="none" stroke="#e60056" stroke-linecap="round" stroke-linejoin="round" stroke-width="1.0"/>
      <path d="M-6.7 12.6 L-7.0 12.35 Q-7.65 11.7 -7.7 10.95 L-7.7 10.85 Q-7.7 10.05 -7.0 9.4" fill="none" stroke="#fe74b3" stroke-linecap="round" stroke-linejoin="round" stroke-width="1.0"/>
      <path d="M-9.55 13.55 L-9.0 13.7 Q4.35 17.4 17.8 13.75" fill="none" stroke="#fc7670" stroke-linecap="round" stroke-linejoin="round" stroke-width="1.0"/>
      <path d="M-0.2 19.4 Q3.65 22.05 7.9 19.65" fill="none" stroke="#c8004b" stroke-linecap="round" stroke-linejoin="round" stroke-width="1.0"/>
      <path d="M7.9 19.65 L9.85 17.9 Q12.8 16.3 16.0 15.75 M-7.7 16.0 Q-3.55 17.0 -1.75 17.95 L-0.2 19.4" fill="none" stroke="#c8004b" stroke-linecap="round" stroke-linejoin="round" stroke-width="1.0"/>
    </g>
  </defs>
</svg>
